;FLAVOR:UltiGCode
;TIME:8103
;MATERIAL:27194
;MATERIAL2:0
;NOZZLE_DIAMETER:0.4
;MINX:49.325
;MINY:60.325
;MINZ:0.27
;MAXX:173.675
;MAXY:149.675
;MAXZ:12.87
;Generated with Cura_SteamEngine 4.6.2
M82 ;absolute extrusion mode
G0 F3000 Y50 ;avoid prime blob
G92 E0
G92 E0
G10
;LAYER_COUNT:43
;LAYER:0
M107
G0 F4500 X171.038 Y60.382 Z0.27
;TYPE:SKIRT
G11
G1 F1800 X171.525 Y60.508 E0.04754
G1 X171.987 Y60.71 E0.09519
G1 X172.411 Y60.981 E0.14274
G1 X172.787 Y61.317 E0.19039
G1 X173.105 Y61.707 E0.23795
G1 X173.357 Y62.143 E0.28553
G1 X173.537 Y62.613 E0.3331
G1 X173.64 Y63.106 E0.38069
G1 X173.674 Y63.741 E0.44078
G1 X173.675 Y145.803 E8.19564
G1 X173.666 Y146.53 E8.26435
G1 X173.62 Y147.032 E8.31199
G1 X173.495 Y147.52 E8.35959
G1 X173.294 Y147.982 E8.4072
G1 X173.023 Y148.406 E8.45476
G1 X172.689 Y148.782 E8.50228
G1 X172.299 Y149.101 E8.5499
G1 X171.863 Y149.354 E8.59753
G1 X171.393 Y149.535 E8.64513
G1 X170.901 Y149.639 E8.69265
G1 X170.259 Y149.674 E8.75341
G1 X53.166 Y149.675 E19.8187
G1 X52.468 Y149.666 E19.88466
G1 X51.967 Y149.619 E19.93222
G1 X51.479 Y149.494 E19.97982
G1 X51.017 Y149.294 E20.02739
G1 X50.593 Y149.022 E20.075
G1 X50.216 Y148.688 E20.1226
G1 X49.898 Y148.297 E20.17022
G1 X49.645 Y147.862 E20.21778
G1 X49.464 Y147.392 E20.26537
G1 X49.36 Y146.899 E20.31299
G1 X49.326 Y146.244 E20.37497
G1 X49.325 Y64.131 E28.13464
G1 X49.334 Y63.466 E28.19749
G1 X49.381 Y62.965 E28.24505
G1 X49.506 Y62.477 E28.29265
G1 X49.707 Y62.015 E28.34026
G1 X49.979 Y61.591 E28.38787
G1 X50.314 Y61.215 E28.43546
G1 X50.704 Y60.897 E28.48301
G1 X51.14 Y60.644 E28.53065
G1 X51.61 Y60.464 E28.57821
G1 X52.103 Y60.36 E28.62582
G1 X52.741 Y60.326 E28.6862
G1 X169.838 Y60.325 E39.75186
G1 X170.536 Y60.335 E39.81783
G1 X171.038 Y60.382 E39.86548
G10
;MESH:Mood Lamp base v3.stl
G0 F4500 X169.961 Y62.804
G0 X169.961 Y64.039
G0 X53.095 Y145.905
G0 X53.025 Y145.975
;TYPE:WALL-INNER
G11
G1 F1800 X53.025 Y64.025 E47.60975
G1 X169.975 Y64.025 E58.66153
G1 X169.975 Y145.975 E66.4058
G1 X53.025 Y145.975 E77.45758
G0 F4500 X52.7 Y146.3
;TYPE:WALL-OUTER
G1 F1800 X52.7 Y63.7 E85.26328
G1 X170.3 Y63.7 E96.37648
G1 X170.3 Y146.3 E104.18218
G1 X52.7 Y146.3 E115.29538
G0 F4500 X52.7 Y146.1
G0 X53.365 Y145.635
;TYPE:SKIN
G1 F1800 X53.365 Y64.365 E122.97539
G1 X169.635 Y64.365 E133.96291
G1 X169.635 Y145.635 E141.64292
G1 X53.365 Y145.635 E152.63044
G0 F4500 X53.906 Y145.477
G1 F1800 X53.521 Y145.091 E152.68196
G0 F4500 X53.521 Y144.596
G1 F1800 X54.401 Y145.477 E152.79963
G0 F4500 X54.896 Y145.477
G1 F1800 X53.521 Y144.101 E152.98346
G0 F4500 X53.521 Y143.607
G1 F1800 X55.391 Y145.477 E153.23337
G0 F4500 X55.886 Y145.477
G1 F1800 X53.521 Y143.112 E153.54943
G0 F4500 X53.521 Y142.617
G1 F1800 X56.381 Y145.477 E153.93165
G0 F4500 X56.876 Y145.477
G1 F1800 X53.521 Y142.122 E154.38003
G0 F4500 X53.521 Y141.627
G1 F1800 X57.371 Y145.477 E154.89455
G0 F4500 X57.866 Y145.477
G1 F1800 X53.521 Y141.132 E155.47523
G0 F4500 X53.521 Y140.637
G1 F1800 X58.361 Y145.477 E156.12207
G0 F4500 X58.856 Y145.477
G1 F1800 X53.521 Y140.142 E156.83505
G0 F4500 X53.521 Y139.647
G1 F1800 X59.351 Y145.477 E157.61419
G0 F4500 X59.846 Y145.477
G1 F1800 X53.521 Y139.152 E158.45949
G0 F4500 X53.521 Y138.657
G1 F1800 X60.341 Y145.477 E159.37093
G0 F4500 X60.836 Y145.477
G1 F1800 X53.521 Y138.162 E160.34853
G0 F4500 X53.521 Y137.667
G1 F1800 X61.331 Y145.477 E161.39228
G0 F4500 X61.826 Y145.477
G1 F1800 X53.521 Y137.172 E162.50219
G0 F4500 X53.521 Y136.677
G1 F1800 X62.321 Y145.477 E163.67825
G0 F4500 X62.816 Y145.477
G1 F1800 X53.521 Y136.182 E164.92046
G0 F4500 X53.521 Y135.687
G1 F1800 X63.311 Y145.477 E166.22883
G0 F4500 X63.806 Y145.477
G1 F1800 X53.521 Y135.192 E167.60335
G0 F4500 X53.521 Y134.697
G1 F1800 X64.301 Y145.477 E169.04403
G0 F4500 X64.796 Y145.477
G1 F1800 X53.521 Y134.202 E170.55085
G0 F4500 X53.521 Y133.707
G1 F1800 X65.291 Y145.477 E172.12383
G0 F4500 X65.786 Y145.477
G1 F1800 X53.521 Y133.212 E173.76297
G0 F4500 X53.521 Y132.717
G1 F1800 X66.281 Y145.477 E175.46825
G0 F4500 X66.776 Y145.477
G1 F1800 X53.521 Y132.222 E177.23969
G0 F4500 X53.521 Y131.727
G1 F1800 X67.271 Y145.477 E179.07729
G0 F4500 X67.766 Y145.477
G1 F1800 X53.521 Y131.232 E180.98103
G0 F4500 X53.521 Y130.737
G1 F1800 X68.261 Y145.477 E182.95093
G0 F4500 X68.756 Y145.477
G1 F1800 X53.521 Y130.242 E184.98699
G0 F4500 X53.521 Y129.747
G1 F1800 X69.251 Y145.477 E187.0892
G0 F4500 X69.746 Y145.477
G1 F1800 X53.521 Y129.252 E189.25756
G0 F4500 X53.521 Y128.757
G1 F1800 X70.241 Y145.477 E191.49207
G0 F4500 X70.736 Y145.477
G1 F1800 X53.521 Y128.262 E193.79274
G0 F4500 X53.521 Y127.767
G1 F1800 X71.231 Y145.477 E196.15956
G0 F4500 X71.726 Y145.477
G1 F1800 X53.521 Y127.272 E198.59253
G0 F4500 X53.521 Y126.777
G1 F1800 X72.221 Y145.477 E201.09166
G0 F4500 X72.716 Y145.477
G1 F1800 X53.521 Y126.282 E203.65694
G0 F4500 X53.521 Y125.787
G1 F1800 X73.211 Y145.477 E206.28838
G0 F4500 X73.705 Y145.477
G1 F1800 X53.521 Y125.292 E208.9859
G0 F4500 X53.521 Y124.797
G1 F1800 X74.2 Y145.477 E211.74957
G0 F4500 X74.695 Y145.477
G1 F1800 X53.521 Y124.303 E214.57933
G0 F4500 X53.521 Y123.808
G1 F1800 X75.19 Y145.477 E217.47524
G0 F4500 X75.685 Y145.477
G1 F1800 X53.521 Y123.313 E220.43731
G0 F4500 X53.521 Y122.818
G1 F1800 X76.18 Y145.477 E223.46553
G0 F4500 X76.675 Y145.477
G1 F1800 X53.521 Y122.323 E226.55991
G0 F4500 X53.521 Y121.828
G1 F1800 X77.17 Y145.477 E229.72044
G0 F4500 X77.665 Y145.477
G1 F1800 X53.521 Y121.333 E232.94712
G0 F4500 X53.521 Y120.838
G1 F1800 X78.16 Y145.477 E236.23995
G0 F4500 X78.655 Y145.477
G1 F1800 X53.521 Y120.343 E239.59894
G0 F4500 X53.521 Y119.848
G1 F1800 X79.15 Y145.477 E243.02408
G0 F4500 X79.645 Y145.477
G1 F1800 X53.521 Y119.353 E246.51537
G0 F4500 X53.521 Y118.858
G1 F1800 X80.14 Y145.477 E250.07282
G0 F4500 X80.635 Y145.477
G1 F1800 X53.521 Y118.363 E253.69642
G0 F4500 X53.521 Y117.868
G1 F1800 X81.13 Y145.477 E257.38618
G0 F4500 X81.625 Y145.477
G1 F1800 X53.521 Y117.373 E261.14209
G0 F4500 X53.521 Y116.878
G1 F1800 X82.12 Y145.477 E264.96415
G0 F4500 X82.615 Y145.477
G1 F1800 X53.521 Y116.383 E268.85236
G0 F4500 X53.521 Y115.888
G1 F1800 X83.11 Y145.477 E272.80673
G0 F4500 X83.605 Y145.477
G1 F1800 X53.521 Y115.393 E276.82725
G0 F4500 X53.521 Y114.898
G1 F1800 X84.1 Y145.477 E280.91393
G0 F4500 X84.595 Y145.477
G1 F1800 X53.521 Y114.403 E285.06675
G0 F4500 X53.521 Y113.908
G1 F1800 X85.09 Y145.477 E289.28574
G0 F4500 X85.585 Y145.477
G1 F1800 X53.521 Y113.413 E293.57087
G0 F4500 X53.521 Y112.918
G1 F1800 X86.08 Y145.477 E297.92216
G0 F4500 X86.575 Y145.477
G1 F1800 X53.521 Y112.423 E302.3396
G0 F4500 X53.521 Y111.928
G1 F1800 X87.07 Y145.477 E306.8232
G0 F4500 X87.565 Y145.477
G1 F1800 X53.521 Y111.433 E311.37294
G0 F4500 X53.521 Y110.938
G1 F1800 X88.06 Y145.477 E315.98885
G0 F4500 X88.555 Y145.477
G1 F1800 X53.521 Y110.443 E320.6709
G0 F4500 X53.521 Y109.948
G1 F1800 X89.05 Y145.477 E325.41911
G0 F4500 X89.545 Y145.477
G1 F1800 X53.521 Y109.453 E330.23347
G0 F4500 X53.521 Y108.958
G1 F1800 X90.04 Y145.477 E335.11399
G0 F4500 X90.535 Y145.477
G1 F1800 X53.521 Y108.463 E340.06066
G0 F4500 X53.521 Y107.968
G1 F1800 X91.03 Y145.477 E345.07348
G0 F4500 X91.525 Y145.477
G1 F1800 X53.521 Y107.473 E350.15245
G0 F4500 X53.521 Y106.978
G1 F1800 X92.02 Y145.477 E355.29758
G0 F4500 X92.515 Y145.477
G1 F1800 X53.521 Y106.483 E360.50886
G0 F4500 X53.521 Y105.988
G1 F1800 X93.009 Y145.477 E365.78623
G0 F4500 X93.504 Y145.477
G1 F1800 X53.521 Y105.493 E371.12976
G0 F4500 X53.521 Y104.998
G1 F1800 X93.999 Y145.477 E376.53943
G0 F4500 X94.494 Y145.477
G1 F1800 X53.521 Y104.504 E382.01519
G0 F4500 X53.521 Y104.009
G1 F1800 X94.989 Y145.477 E387.55711
G0 F4500 X95.484 Y145.477
G1 F1800 X53.521 Y103.514 E393.16518
G0 F4500 X53.521 Y103.019
G1 F1800 X95.979 Y145.477 E398.8394
G0 F4500 X96.474 Y145.477
G1 F1800 X53.521 Y102.524 E404.57978
G0 F4500 X53.521 Y102.029
G1 F1800 X96.969 Y145.477 E410.3863
G0 F4500 X97.464 Y145.477
G1 F1800 X53.521 Y101.534 E416.25899
G0 F4500 X53.521 Y101.039
G1 F1800 X97.959 Y145.477 E422.19782
G0 F4500 X98.454 Y145.477
G1 F1800 X53.521 Y100.544 E428.20281
G0 F4500 X53.521 Y100.049
G1 F1800 X98.949 Y145.477 E434.27395
G0 F4500 X99.444 Y145.477
G1 F1800 X53.521 Y99.554 E440.41125
G0 F4500 X53.521 Y99.059
G1 F1800 X99.939 Y145.477 E446.6147
G0 F4500 X100.434 Y145.477
G1 F1800 X53.521 Y98.564 E452.8843
G0 F4500 X53.521 Y98.069
G1 F1800 X100.929 Y145.477 E459.22006
G0 F4500 X101.424 Y145.477
G1 F1800 X53.521 Y97.574 E465.62197
G0 F4500 X53.521 Y97.079
G1 F1800 X101.919 Y145.477 E472.09003
G0 F4500 X102.414 Y145.477
G1 F1800 X53.521 Y96.584 E478.62425
G0 F4500 X53.521 Y96.089
G1 F1800 X102.909 Y145.477 E485.22461
G0 F4500 X103.404 Y145.477
G1 F1800 X53.521 Y95.594 E491.89114
G0 F4500 X53.521 Y95.099
G1 F1800 X103.899 Y145.477 E498.62381
G0 F4500 X104.394 Y145.477
G1 F1800 X53.521 Y94.604 E505.42264
G0 F4500 X53.521 Y94.109
G1 F1800 X104.889 Y145.477 E512.28763
G0 F4500 X105.384 Y145.477
G1 F1800 X53.521 Y93.614 E519.21876
G0 F4500 X53.521 Y93.119
G1 F1800 X105.879 Y145.477 E526.21605
G0 F4500 X106.374 Y145.477
G1 F1800 X53.521 Y92.624 E533.2795
G0 F4500 X53.521 Y92.129
G1 F1800 X106.869 Y145.477 E540.40909
G0 F4500 X107.364 Y145.477
G1 F1800 X53.521 Y91.634 E547.60484
G0 F4500 X53.521 Y91.139
G1 F1800 X107.859 Y145.477 E554.86675
G0 F4500 X108.354 Y145.477
G1 F1800 X53.521 Y90.644 E562.1948
G0 F4500 X53.521 Y90.149
G1 F1800 X108.849 Y145.477 E569.58901
G0 F4500 X109.344 Y145.477
G1 F1800 X53.521 Y89.654 E577.04938
G0 F4500 X53.521 Y89.159
G1 F1800 X109.839 Y145.477 E584.57589
G0 F4500 X110.334 Y145.477
G1 F1800 X53.521 Y88.664 E592.16856
G0 F4500 X53.521 Y88.169
G1 F1800 X110.829 Y145.477 E599.82739
G0 F4500 X111.324 Y145.477
G1 F1800 X53.521 Y87.674 E607.55236
G0 F4500 X53.521 Y87.179
G1 F1800 X111.819 Y145.477 E615.34349
G0 F4500 X112.314 Y145.477
G1 F1800 X53.521 Y86.684 E623.20078
G0 F4500 X53.521 Y86.189
G1 F1800 X112.808 Y145.477 E631.12415
G0 F4500 X113.303 Y145.477
G1 F1800 X53.521 Y85.694 E639.11367
G0 F4500 X53.521 Y85.2
G1 F1800 X113.798 Y145.477 E647.16928
G0 F4500 X114.293 Y145.477
G1 F1800 X53.521 Y84.705 E655.29104
G0 F4500 X53.521 Y84.21
G1 F1800 X114.788 Y145.477 E663.47896
G0 F4500 X115.283 Y145.477
G1 F1800 X53.521 Y83.715 E671.73303
G0 F4500 X53.521 Y83.22
G1 F1800 X115.778 Y145.477 E680.05325
G0 F4500 X116.273 Y145.477
G1 F1800 X53.521 Y82.725 E688.43963
G0 F4500 X53.521 Y82.23
G1 F1800 X116.768 Y145.477 E696.89216
G0 F4500 X117.263 Y145.477
G1 F1800 X53.521 Y81.735 E705.41084
G0 F4500 X53.521 Y81.24
G1 F1800 X117.758 Y145.477 E713.99568
G0 F4500 X118.253 Y145.477
G1 F1800 X53.521 Y80.745 E722.64667
G0 F4500 X53.521 Y80.25
G1 F1800 X118.748 Y145.477 E731.36382
G0 F4500 X119.243 Y145.477
G1 F1800 X53.521 Y79.755 E740.14711
G0 F4500 X53.521 Y79.26
G1 F1800 X119.738 Y145.477 E748.99656
G0 F4500 X120.233 Y145.477
G1 F1800 X53.521 Y78.765 E757.91217
G0 F4500 X53.521 Y78.27
G1 F1800 X120.728 Y145.477 E766.89392
G0 F4500 X121.223 Y145.477
G1 F1800 X53.521 Y77.775 E775.94184
G0 F4500 X53.521 Y77.28
G1 F1800 X121.718 Y145.477 E785.0559
G0 F4500 X122.213 Y145.477
G1 F1800 X53.521 Y76.785 E794.23612
G0 F4500 X53.521 Y76.29
G1 F1800 X122.708 Y145.477 E803.48249
G0 F4500 X123.203 Y145.477
G1 F1800 X53.521 Y75.795 E812.79501
G0 F4500 X53.521 Y75.3
G1 F1800 X123.698 Y145.477 E822.17369
G0 F4500 X124.193 Y145.477
G1 F1800 X53.521 Y74.805 E831.61852
G0 F4500 X53.521 Y74.31
G1 F1800 X124.688 Y145.477 E841.1295
G0 F4500 X125.183 Y145.477
G1 F1800 X53.521 Y73.815 E850.70664
G0 F4500 X53.521 Y73.32
G1 F1800 X125.678 Y145.477 E860.34993
G0 F4500 X126.173 Y145.477
G1 F1800 X53.521 Y72.825 E870.05938
G0 F4500 X53.521 Y72.33
G1 F1800 X126.668 Y145.477 E879.83498
G0 F4500 X127.163 Y145.477
G1 F1800 X53.521 Y71.835 E889.67673
G0 F4500 X53.521 Y71.34
G1 F1800 X127.658 Y145.477 E899.58463
G0 F4500 X128.153 Y145.477
G1 F1800 X53.521 Y70.845 E909.55869
G0 F4500 X53.521 Y70.35
G1 F1800 X128.648 Y145.477 E919.5989
G0 F4500 X129.143 Y145.477
G1 F1800 X53.521 Y69.855 E929.70527
G0 F4500 X53.521 Y69.36
G1 F1800 X129.638 Y145.477 E939.87778
G0 F4500 X130.133 Y145.477
G1 F1800 X53.521 Y68.865 E950.11645
G0 F4500 X53.521 Y68.37
G1 F1800 X130.628 Y145.477 E960.42128
G0 F4500 X131.123 Y145.477
G1 F1800 X53.521 Y67.875 E970.79226
G0 F4500 X53.521 Y67.38
G1 F1800 X131.618 Y145.477 E981.22939
G0 F4500 X132.113 Y145.477
G1 F1800 X53.521 Y66.885 E991.73267
G0 F4500 X53.521 Y66.39
G1 F1800 X132.607 Y145.477 E1002.30205
G0 F4500 X133.102 Y145.477
G1 F1800 X53.521 Y65.895 E1012.93757
G0 F4500 X53.521 Y65.401
G1 F1800 X133.597 Y145.477 E1023.63918
G0 F4500 X134.092 Y145.477
G1 F1800 X53.521 Y64.906 E1034.40695
G0 F4500 X53.631 Y64.521
G1 F1800 X134.587 Y145.477 E1045.22616
G0 F4500 X135.082 Y145.477
G1 F1800 X54.126 Y64.521 E1056.04538
G0 F4500 X54.621 Y64.521
G1 F1800 X135.577 Y145.477 E1066.8646
G0 F4500 X136.072 Y145.477
G1 F1800 X55.116 Y64.521 E1077.68382
G0 F4500 X55.611 Y64.521
G1 F1800 X136.567 Y145.477 E1088.50303
G0 F4500 X137.062 Y145.477
G1 F1800 X56.106 Y64.521 E1099.32225
G0 F4500 X56.601 Y64.521
G1 F1800 X137.557 Y145.477 E1110.14147
G0 F4500 X138.052 Y145.477
G1 F1800 X57.096 Y64.521 E1120.96069
G0 F4500 X57.591 Y64.521
G1 F1800 X138.547 Y145.477 E1131.7799
G0 F4500 X139.042 Y145.477
G1 F1800 X58.086 Y64.521 E1142.59912
G0 F4500 X58.581 Y64.521
G1 F1800 X139.537 Y145.477 E1153.41834
G0 F4500 X140.032 Y145.477
G1 F1800 X59.076 Y64.521 E1164.23756
G0 F4500 X59.571 Y64.521
G1 F1800 X140.527 Y145.477 E1175.05677
G0 F4500 X141.022 Y145.477
G1 F1800 X60.066 Y64.521 E1185.87599
G0 F4500 X60.561 Y64.521
G1 F1800 X141.517 Y145.477 E1196.69521
G0 F4500 X142.012 Y145.477
G1 F1800 X61.056 Y64.521 E1207.51443
G0 F4500 X61.551 Y64.521
G1 F1800 X142.507 Y145.477 E1218.33364
G0 F4500 X143.002 Y145.477
G1 F1800 X62.046 Y64.521 E1229.15286
G0 F4500 X62.541 Y64.521
G1 F1800 X143.497 Y145.477 E1239.97208
G0 F4500 X143.992 Y145.477
G1 F1800 X63.036 Y64.521 E1250.7913
G0 F4500 X63.531 Y64.521
G1 F1800 X144.487 Y145.477 E1261.61051
G0 F4500 X144.982 Y145.477
G1 F1800 X64.026 Y64.521 E1272.42973
G0 F4500 X64.521 Y64.521
G1 F1800 X145.477 Y145.477 E1283.24895
G0 F4500 X145.972 Y145.477
G1 F1800 X65.016 Y64.521 E1294.06816
G0 F4500 X65.511 Y64.521
G1 F1800 X146.467 Y145.477 E1304.88738
G0 F4500 X146.962 Y145.477
G1 F1800 X66.006 Y64.521 E1315.7066
G0 F4500 X66.501 Y64.521
G1 F1800 X147.457 Y145.477 E1326.52582
G0 F4500 X147.952 Y145.477
G1 F1800 X66.996 Y64.521 E1337.34503
G0 F4500 X67.491 Y64.521
G1 F1800 X148.447 Y145.477 E1348.16425
G0 F4500 X148.942 Y145.477
G1 F1800 X67.986 Y64.521 E1358.98347
G0 F4500 X68.481 Y64.521
G1 F1800 X149.437 Y145.477 E1369.80269
G0 F4500 X149.932 Y145.477
G1 F1800 X68.976 Y64.521 E1380.6219
G0 F4500 X69.471 Y64.521
G1 F1800 X150.427 Y145.477 E1391.44112
G0 F4500 X150.922 Y145.477
G1 F1800 X69.966 Y64.521 E1402.26034
G0 F4500 X70.461 Y64.521
G1 F1800 X151.417 Y145.477 E1413.07956
G0 F4500 X151.911 Y145.477
G1 F1800 X70.956 Y64.521 E1423.89871
G0 F4500 X71.451 Y64.521
G1 F1800 X152.406 Y145.477 E1434.71786
G0 F4500 X152.901 Y145.477
G1 F1800 X71.945 Y64.521 E1445.53707
G0 F4500 X72.44 Y64.521
G1 F1800 X153.396 Y145.477 E1456.35629
G0 F4500 X153.891 Y145.477
G1 F1800 X72.935 Y64.521 E1467.17551
G0 F4500 X73.43 Y64.521
G1 F1800 X154.386 Y145.477 E1477.99473
G0 F4500 X154.881 Y145.477
G1 F1800 X73.925 Y64.521 E1488.81394
G0 F4500 X74.42 Y64.521
G1 F1800 X155.376 Y145.477 E1499.63316
G0 F4500 X155.871 Y145.477
G1 F1800 X74.915 Y64.521 E1510.45238
G0 F4500 X75.41 Y64.521
G1 F1800 X156.366 Y145.477 E1521.2716
G0 F4500 X156.861 Y145.477
G1 F1800 X75.905 Y64.521 E1532.09081
G0 F4500 X76.4 Y64.521
G1 F1800 X157.356 Y145.477 E1542.91003
G0 F4500 X157.851 Y145.477
G1 F1800 X76.895 Y64.521 E1553.72925
G0 F4500 X77.39 Y64.521
G1 F1800 X158.346 Y145.477 E1564.54847
G0 F4500 X158.841 Y145.477
G1 F1800 X77.885 Y64.521 E1575.36768
G0 F4500 X78.38 Y64.521
G1 F1800 X159.336 Y145.477 E1586.1869
G0 F4500 X159.831 Y145.477
G1 F1800 X78.875 Y64.521 E1597.00612
G0 F4500 X79.37 Y64.521
G1 F1800 X160.326 Y145.477 E1607.82534
G0 F4500 X160.821 Y145.477
